X:1
T:Kindelein zart, von guter Art
T:Bearbeitung von Franz Wüllner
T:Kindelein zart, von guter Art
T:CPDL - Creative Commons Attribution Non Commercial 3.0
T:CPDL - Creative Commons Attribution Non Commercial 3.0
T:CPDL - Creative Commons Attribution Non Commercial 3.0
C:Franz Wüllner
Z:CPDL - Creative Commons Attribution Non Commercial 3.0
%%score [ 1 2 3 4 ]
L:1/8
Q:1/4=66
M:6/8
K:Ab
V:1 treble nm="S"
V:2 treble nm="A"
V:3 treble-8 nm="T"
V:4 bass nm="B"
V:1
"^Andantino con moto"!p! cAB c2 e | A2 B c2 z | BcB!<(! A2 G!<)! |!>(! F3 E2!>)! z |!p! cAB c2 e | %5
w: 1.~Kin- de- lein zart von|gu- ter Art,|schlie- ße die Äug- lein,|schla- fe!|Drau- ßen im Hain, lieb|
w: 2.~En- ge- lein fein in|sü- ßem Reih'n|schwe- ben vom Him- mel|nie- der,|im Her- zens- drang mit|
 A2 B c2 z | BcB |!<(! A2 G!<)! |!>(! F3!>)! E2 z |!p! Be_d c2 z | Adc B2 z | BcB AB!<(!c!<)! | %12
w: Kin- de- lein,|zie- hen die|from- men|Scha- fe.|Schla- fe und tu|dein Äug- lein zu,|schla- fe, mein Herz- * chen,|
w: Har- fen- klang|sin- gen sie|ih- re|Lie- der.|Schla- fe und ruh',|En- ge- lein du,|schließ dei- ne Äug- * lein|
!>(! B3!>)! A2 z |!p!"^più" Bed c2 z | Adc B2"^più" z |"^dim." BcB EFG |!pp! B3 !fermata!A2 z |] %17
w: schla- fe,|schla- fe und tu|dein Äug- lein zu,|schla- fe, mein Herz- * chen,|schla- fe!|
w: wie- der,|schla- fe und ruh',|En- ge- lein du,|schließ dei- ne Äug- * lein|wie- der!|
V:2
!p! A3- A>AA | F2 G A2 z | E2 E-!<(! E=DE-!<)! |!>(! EC=D E2!>)! z |!p! E3- EA_G | F2 =G A2 z | %6
w: 1.~Kin- * de- lein|gu- ter Art,|Kind- lein, _ _ schla-|* * * fe!|Drau- * ßen, lieb|Kin- de- lein,|
w: 2.~Eng- * lein in|sü- ßem Reihn|schwe- ben _ _ nie-|* * * der,|mit _ sü- ßem|Har- fen- klang|
 E2 =E |!<(! F=D_E!<)! |!>(! EC=D!>)! B,2 z |!p! (E2 F G=E)C | (_D2 _E FD)B, | G=EG F2!<(! A-!<)! | %12
w: zie- hen|fromm _ die|Scha- * * fe.|1.\-2.~Schla- * * * fe,|Schla- * * * fe,|schla- fe, mein Herz, schla-|
w: sin- gen|ih- * re|Lie- * * der.|||schließ dei- ne Äug- lein|
!>(! AFG!>)! A2 z |"^più"!p! G3- GA_G | F3- F=G"^più"F |"^dim." E3- E2 D |!pp! D3 !fermata!C2 z |] %17
w: * * * fe,|schla- * * fe,|schla- * * fe,|Herz- * chen,|schla- fe!|
w: wie- * * der,||schließ _ _ die|Äug- * lein|wie- der!|
V:3
!p! ecd e2 c | d2 d e2 z | e2 B!<(! cAB!<)! |!>(! A3 G2!>)! z |!p! Ac_d e2 c | d2 d e2 z | B2 B | %7
w: 1.~Kin- de- lein zart von|gu- ter Art,|schließ die Äug- * lein,|schla- fe!|Drau- ßen, im Hain, lieb|Kin- de- lein,|zie- hen|
w: 2.~En- ge- lein fein in|sü- ßen Reih'n|schwe- ben hoch _ her-|nie- der,|im Her- zens- drang mit|Har- fen- klang|sin- gen|
!<(! cAB!<)! |!>(! c2 B/A/!>)! G2 z |!p! (B2 A) G2 z | (A2 G) F2 z | =EGc d2!<(! _e!<)! | %12
w: fromm _ die|Scha- * * fe.|1.\-2.~Schla- * fe,|schla- * fe,|schla- fe, mein Herz- chen,|
w: ih- * re|Lie- * * der.|||schließ dei- ne Äug- lein|
!>(! d3!>)! c2 z |"^più"!p! e>BG Ace | d>AF =GB"^più"d |"^dim." G>FG A2 E | %16
w: schla- fe,|schla- fe und tu _ dein|Äu- ge- lein zu, _ _|schla- fe, mein Herz- chen,|
w: wie- der,|schla- fe und ruh', _ lieb|En- ge- lein du, _ _|schlie- ße dein Äug- lein|
!pp! E>FG !fermata!A2 z |] %17
w: schla- * * fe!|
w: wie- * * der!|
V:4
!p! A,3- A,2 A, | A,3- A,2 z | G,2 G,!<(! F,2 E,!<)! |!>(! B,,3 E,!>)!_D,B,, |!p! A,,3- A,,2 A, | %5
w: 1.~Kind- * lein|zart, _|schließ die Äug- lein,|schla- * * fe!|Drau- * ßen,|
w: 2.~Eng- * lein|fein _|schwe- ben hoch her-|nie- * * der,|sin- gen mit|
 A,3- A,2 A, | G,3 |!<(! F,2 E,!<)! |!>(! A,,2 B,,!>)! E,2 z |!p! (G,2 F,) =E,2 z | %10
w: Kin- * de-|lein,|zie- hen|Scha- * fe.|1.\-2.~Schla- * fe,|
w: Har- * fen-|klang|ih- re|Lie- * der.||
 (F,2 _E,) D,2 z | C,2 =E, F,2!<(! C,/D,/!<)! |!>(! _E,3!>)! A,G,F, |"^più"!p! E,3- E,>C,A,, | %14
w: schla- * fe,|schlaf mein Herz- chen, _|schla- * * fe,|schla- * * fe,|
w: |schließ die Äug- lein _|wie- * * der,||
 D,3- D,>B,,"^più"G,, |"^dim." E,2 D, C,>D,E, |!pp! A,,3 !fermata!A,,2 z |] %17
w: schla- * * fe,|schla- fe, Herz- * chen,|schla- fe!|
w: |schließ die Äug- * lein|wie- der!|

